Papirus/48x48/apps/pureref.svg

<svg width="48" height="48" version="1.1" xmlns="http://www.w3.org/2000/svg">
 <g>
  <rect transform="matrix(0,-1,-1,0,0,0)" x="-44" y="-44" width="40" height="40" rx="2" ry="2" style="fill:#8e8e8e"/>
  <path d="M 23.5,8 A 14.5,14.5 0 0 0 9,22.5 V 42 H 19 V 36.273438 A 14.5,14.5 0 0 0 23.5,37 14.5,14.5 0 0 0 27.044922,36.544922 L 33,42.5 l 7,-7 -4.654297,-4.654297 A 14.5,14.5 0 0 0 38,22.5 14.5,14.5 0 0 0 23.5,8 Z" style="fill:#000005;opacity:.2"/>
  <path d="M 23.5,7 A 14.5,14.5 0 0 0 9,21.5 V 41 H 19 V 35.273438 A 14.5,14.5 0 0 0 23.5,36 14.5,14.5 0 0 0 27.044922,35.544922 L 33,41.5 l 7,-7 -4.654297,-4.654297 A 14.5,14.5 0 0 0 38,21.5 14.5,14.5 0 0 0 23.5,7 Z" style="fill:#dddddd"/>
  <path d="m6 4c-1.108 0-2 0.892-2 2v1c0-1.108 0.892-2 2-2h36c1.108 0 2 0.892 2 2v-1c0-1.108-0.892-2-2-2z" style="fill:#ffffff;opacity:.1"/>
  <path d="m6 45c-1.108 0-2-0.892-2-2v-1c0 1.108 0.892 2 2 2h36c1.108 0 2-0.892 2-2v1c0 1.108-0.892 2-2 2z" style="opacity:.2"/>
  <path d="m23.5 10.017578a11.5 11.5 0 0 0-11.5 11.482422 11.5 11.5 0 0 0 0 0.01758v16.48242h4v-7.773438a11.5 11.5 0 0 0 7.5 2.791016 11.5 11.5 0 0 0 11.5-11.5 11.5 11.5 0 0 0-11.5-11.5z" style="fill:#333333"/>
  <circle cx="23.5" cy="21.5" r="7.499999" style="fill:#ffffff"/>
  <path d="M 30.978516,21.947266 A 7.499999,7.499999 0 0 1 23.5,29 7.499999,7.499999 0 0 1 16.021484,22.052734 7.499999,7.499999 0 0 0 16,22.5 7.499999,7.499999 0 0 0 23.5,30 7.499999,7.499999 0 0 0 31,22.5 7.499999,7.499999 0 0 0 30.978516,21.947266 Z" style="opacity:.2"/>
  <path d="m34.978516 22.095703a11.5 11.5 0 0 1-11.478516 10.921875 11.5 11.5 0 0 1-7.5-2.791016v1a11.5 11.5 0 0 0 7.5 2.791016 11.5 11.5 0 0 0 11.5-11.5 11.5 11.5 0 0 0-0.02148-0.421875zm-22.978516 15.904297v1h4v-1z" style="opacity:.2"/>
  <path d="M 23.5,10.017578 A 11.5,11.5 0 0 0 12,21.5 11.5,11.5 0 0 0 12,21.51758 V 22.5 A 11.5,11.5 0 0 1 23.5,11.017578 11.5,11.5 0 0 1 34.978516,22.095703 11.5,11.5 0 0 0 35,21.517578 a 11.5,11.5 0 0 0 -11.5,-11.5 z" style="fill:#ffffff;opacity:.2"/>
 </g>
</svg>

<svg xmlns="http://www.w3.org/2000/svg" width="48" height="48" version="1.1">
 <rect style="opacity:0.2" width="40" height="40" x="4" y="5" rx="2" ry="2"/>
 <rect style="fill:#8e8e8e" width="40" height="40" x="4" y="4" rx="2" ry="2"/>
 <path style="opacity:0.2" d="M 23.5,8 A 14.5,14.5 0 0 0 9,22.5 V 42 H 19 V 36.273 A 14.5,14.5 0 0 0 23.5,37 14.5,14.5 0 0 0 27.045,36.545 L 33,42.5 40,35.5 35.346,30.846 A 14.5,14.5 0 0 0 38,22.5 14.5,14.5 0 0 0 23.5,8 Z"/>
 <path style="fill:#dddddd" d="M 23.5,7 A 14.5,14.5 0 0 0 9,21.5 V 41 H 19 V 35.273 A 14.5,14.5 0 0 0 23.5,36 14.5,14.5 0 0 0 27.045,35.545 L 33,41.5 40,34.5 35.346,29.846 A 14.5,14.5 0 0 0 38,21.5 14.5,14.5 0 0 0 23.5,7 Z"/>
 <path style="opacity:0.2" d="M 23.5,11 A 11.5,11.5 0 0 0 12,22.5 11.5,11.5 0 0 0 12.018,23 H 12 V 39 H 16 V 31.209 A 11.5,11.5 0 0 0 23.5,34 11.5,11.5 0 0 0 35,22.5 11.5,11.5 0 0 0 23.5,11 Z"/>
 <path style="fill:#333333" d="M 23.5,10 A 11.5,11.5 0 0 0 12,21.5 11.5,11.5 0 0 0 12.018,22 H 12 V 38 H 16 V 30.209 A 11.5,11.5 0 0 0 23.5,33 11.5,11.5 0 0 0 35,21.5 11.5,11.5 0 0 0 23.5,10 Z"/>
 <circle style="opacity:0.2" cx="23.5" cy="22.5" r="7.5"/>
 <circle style="fill:#ffffff" cx="23.5" cy="21.5" r="7.5"/>
 <path style="fill:#ffffff;opacity:0.1" d="M 23.5 10 A 11.5 11.5 0 0 0 12 21.5 A 11.5 11.5 0 0 0 12.018 22 A 11.5 11.5 0 0 1 23.5 11 A 11.5 11.5 0 0 1 34.979 22.078 A 11.5 11.5 0 0 0 35 21.5 A 11.5 11.5 0 0 0 23.5 10 z M 12.018 22 L 12 22 L 12 22.5 A 11.5 11.5 0 0 1 12.018 22 z M 12 22.5 L 12 23 L 12.018 23 A 11.5 11.5 0 0 1 12 22.5 z"/>
 <path style="fill:#ffffff;opacity:0.2" d="M 6 4 C 4.892 4 4 4.892 4 6 L 4 7 C 4 5.892 4.892 5 6 5 L 42 5 C 43.108 5 44 5.892 44 7 L 44 6 C 44 4.892 43.108 4 42 4 L 6 4 z"/>
</svg>
